Numix-GalliumOS/32/mimetypes/encrypted-key.svg

<?xml version="1.0" encoding="UTF-8" standalone="no"?>
<svg
   xmlns:dc="http://purl.org/dc/elements/1.1/"
   xmlns:cc="http://creativecommons.org/ns#"
   xmlns:rdf="http://www.w3.org/1999/02/22-rdf-syntax-ns#"
   xmlns:svg="http://www.w3.org/2000/svg"
   xmlns="http://www.w3.org/2000/svg"
   xmlns:sodipodi="http://sodipodi.sourceforge.net/DTD/sodipodi-0.dtd"
   xmlns:inkscape="http://www.inkscape.org/namespaces/inkscape"
   width="32"
   height="32"
   viewBox="0 0 32 32"
   id="svg2"
   version="1.1"
   inkscape:version="0.48.5 r10040"
   sodipodi:docname="encrypted-key.svg">
  <metadata
     id="metadata14">
    <rdf:RDF>
      <cc:Work
         rdf:about="">
        <dc:format>image/svg+xml</dc:format>
        <dc:type
           rdf:resource="http://purl.org/dc/dcmitype/StillImage" />
      </cc:Work>
    </rdf:RDF>
  </metadata>
  <defs
     id="defs12" />
  <sodipodi:namedview
     pagecolor="#ffffff"
     bordercolor="#666666"
     borderopacity="1"
     objecttolerance="10"
     gridtolerance="10"
     guidetolerance="10"
     inkscape:pageopacity="0"
     inkscape:pageshadow="2"
     inkscape:window-width="1280"
     inkscape:window-height="970"
     id="namedview10"
     showgrid="true"
     inkscape:zoom="10.429825"
     inkscape:cx="-21.031666"
     inkscape:cy="-1.0280609"
     inkscape:window-x="0"
     inkscape:window-y="0"
     inkscape:window-maximized="1"
     inkscape:current-layer="svg2">
    <inkscape:grid
       type="xygrid"
       id="grid2991" />
  </sodipodi:namedview>
  <path
     style="fill:#dcdcdc;fill-opacity:1"
     d="M 5.335888,2.9732228e-4 C 4.648414,3.1228127e-4 4,0.67678818 4,1.3940315 L 4,30.606268 C 4,31.282757 4.687474,32 5.335888,32 l 21.327332,0 c 0.648414,0 1.335888,-0.717243 1.335888,-1.393732 L 28,9 19,0 z"
     id="path4-1"
     inkscape:connector-curvature="0"
     sodipodi:nodetypes="ssssssccs" />
  <path
     style="fill:#000000;fill-opacity:0.19599998"
     d="m 21,9 7,7 0,-7 z"
     id="path6-4"
     inkscape:connector-curvature="0"
     sodipodi:nodetypes="cccc" />
  <path
     style="fill:#ffffff;fill-opacity:0.39200003"
     d="M 19.000306,2.9732228e-4 27.9919,9 20.378638,9 C 19.705687,9 19.000306,8.2865104 19.000306,7.6135598 z"
     id="path8-6"
     inkscape:connector-curvature="0"
     sodipodi:nodetypes="ccssc" />
  <path
     style="fill:#888888;fill-opacity:1"
     inkscape:connector-curvature="0"
     d="m 19.249942,12.000054 c -2.071056,0 -3.749978,1.558989 -3.749978,3.482088 0,0.600999 0.164477,1.16789 0.453121,1.661276 0.001,0.0013 -0.001,0.0056 0,0.0073 L 9,23.607166 9,25 l 1.499991,0 0.499998,-0.46426 0,-0.928574 0.999995,0 0.499997,-0.464295 0.999994,0 0.499997,-0.464277 0,-0.928555 0.499997,-0.464296 0.999995,0 0,-0.928555 1.953114,-1.81361 c 0.0019,9.75e-4 0.0058,-9.75e-4 0.0079,0 0.531347,0.268025 1.141849,0.420758 1.789055,0.420758 C 21.321076,18.964336 23,17.405328 23,15.482211 l 0,-0.0146 C 22.993307,13.548813 21.316389,12 19.250005,12 z m 0.749997,1.857127 c 0.551035,0 0.998236,0.416873 0.999995,0.928554 0,0.51283 -0.447713,0.928554 -0.999995,0.928554 -0.552283,0 -0.999995,-0.415724 -0.999995,-0.928554 0,-0.512847 0.447712,-0.928554 0.999995,-0.928554 z"
     id="path30-2" />
</svg>

<svg xmlns="http://www.w3.org/2000/svg" viewBox="0 0 32 32">
 <path d="m 5.336 0 c -0.687 0 -1.336 0.676 -1.336 1.394 l 0 29.21 c 0 0.676 0.687 1.394 1.336 1.394 l 21.327 0 c 0.648 0 1.336 -0.717 1.336 -1.394 l 0.001 -21.606 -9 -9 z" style="fill:#dcdcdc;fill-opacity:1"/>
 <path d="m 21 9 7 7 0 -7 z" style="fill:#000;fill-opacity:0.196"/>
 <path d="m 19 0 8.992 9 -7.613 0 c -0.673 0 -1.378 -0.713 -1.378 -1.386 z" style="fill:#fff;fill-opacity:0.392"/>
 <path d="m 19.25 12 c -2.071 0 -3.75 1.559 -3.75 3.482 0 0.601 0.164 1.168 0.453 1.661 0.001 0.001 -0.001 0.006 0 0.007 l -6.953 6.456 0 1.393 l 1.5 0 0.5 -0.464 0 -0.929 1 0 0.5 -0.464 1 0 0.5 -0.464 0 -0.929 0.5 -0.464 1 0 0 -0.929 1.953 -1.814 c 0.002 0.001 0.006 -0.001 0.008 0 0.531 0.268 1.142 0.421 1.789 0.421 c 2.071 0 3.75 -1.559 3.75 -3.482 l 0 -0.015 c -0.007 -1.919 -1.684 -3.468 -3.75 -3.468 z m 0.75 1.857 c 0.551 0 0.998 0.417 1 0.929 0 0.513 -0.448 0.929 -1 0.929 -0.552 0 -1 -0.416 -1 -0.929 0 -0.513 0.448 -0.929 1 -0.929 z" style="fill:#888;fill-opacity:1"/>
</svg>
